public/assets/images/icons/location.svg

<svg width="59" height="76" viewBox="0 0 59 76" fill="none" xmlns="http://www.w3.org/2000/svg">
<path d="M29.6564 0.754639C13.6962 0.754639 0.193604 13.8374 0.193604 29.3408C0.193604 44.8443 15.8572 62.17 26.3938 73.8384C26.4362 73.8792 28.131 75.7015 30.2355 75.7015H30.4191C32.5236 75.7015 34.2044 73.8792 34.2468 73.8384C44.1336 62.8908 58.5684 44.8443 58.5684 29.3408C58.5684 13.8374 48.0319 0.754639 29.6564 0.754639ZM30.631 70.6833C30.5463 70.7649 30.4191 70.8601 30.3062 70.9281C30.1932 70.8465 30.066 70.7649 29.9813 70.6833L28.7101 69.269C18.7244 58.2398 5.03817 43.1307 5.03817 29.3272C5.03817 16.3669 16.3092 5.43287 29.6423 5.43287C46.2522 5.43287 53.6956 17.4412 53.6956 29.3272C53.6956 39.8124 45.9274 53.7247 30.631 70.6833Z" fill="#194BFF"/>
<path d="M29.3738 38.344C23.0039 38.344 17.8203 33.353 17.8203 27.2196C17.8203 21.0862 23.0039 16.0952 29.3738 16.0952C35.7438 16.0952 40.9273 21.0862 40.9273 27.2196C40.9273 33.353 35.7438 38.344 29.3738 38.344ZM29.3738 19.8487C25.1507 19.8487 21.7044 23.1534 21.7044 27.2332C21.7044 31.3131 25.1366 34.6177 29.3738 34.6177C33.611 34.6177 37.0432 31.3131 37.0432 27.2332C37.0432 23.1534 33.611 19.8487 29.3738 19.8487Z" fill="#194BFF"/>
</svg>

<?xml version="1.0" encoding="UTF-8"?>
<svg id="Capa_1" xmlns="http://www.w3.org/2000/svg" version="1.1" viewBox="0 0 59 76">
  <!-- Generator: Adobe Illustrator 30.0.0, SVG Export Plug-In . SVG Version: 2.1.1 Build 123)  -->
  <defs>
    <style>
      .st0 {
        fill: #ec6104;
      }
    </style>
  </defs>
  <path class="st0" d="M29.66.75C13.7.75.19,13.84.19,29.34s15.66,32.83,26.2,44.5c.04.04,1.74,1.86,3.84,1.86h.18c2.1,0,3.79-1.82,3.83-1.86,9.89-10.95,24.32-28.99,24.32-44.5S48.03.75,29.66.75ZM30.63,70.68c-.08.08-.21.18-.32.24-.11-.08-.24-.16-.32-.24l-1.27-1.41C18.72,58.24,5.04,43.13,5.04,29.33c0-12.96,11.27-23.89,24.6-23.89,16.61,0,24.05,12.01,24.05,23.89,0,10.49-7.77,24.4-23.06,41.36Z"/>
  <path class="st0" d="M29.37,38.34c-6.37,0-11.55-4.99-11.55-11.12s5.18-11.12,11.55-11.12,11.55,4.99,11.55,11.12-5.18,11.12-11.55,11.12ZM29.37,19.85c-4.22,0-7.67,3.3-7.67,7.38s3.43,7.38,7.67,7.38,7.67-3.3,7.67-7.38-3.43-7.38-7.67-7.38Z"/>
</svg>
